svgs/thin/trowel.svg

<svg xmlns="http://www.w3.org/2000/svg" viewBox="0 0 512 512"><!--! Font Awesome Pro 6.1.1 by @fontawesome - https://fontawesome.com License - https://fontawesome.com/license (Commercial License) Copyright 2022 Fonticons, Inc. --><path d="M298.9 168.4C284.4 153.8 284.4 130.2 298.9 115.6L394.4 20.18C421.3-6.728 464.9-6.728 491.8 20.18C518.7 47.1 518.7 90.73 491.8 117.6L396.4 213.1C381.8 227.6 358.2 227.6 343.6 213.1L326.9 196.4L227.3 296L298.6 367.3C315.3 384 308.8 412.4 286.6 420.2L49.69 503.1C24.38 511.9 .056 487.6 8.913 462.3L91.83 225.4C99.62 203.1 127.1 196.7 144.7 213.3L215.1 284.7L315.6 185.1L298.9 168.4zM310.2 126.9C301.9 135.3 301.9 148.8 310.2 157.1L354.9 201.8C363.2 210.1 376.7 210.1 385.1 201.8L480.5 106.3C501.2 85.66 501.2 52.16 480.5 31.5C459.8 10.83 426.3 10.83 405.7 31.5L310.2 126.9zM24.02 467.6C19.59 480.2 31.75 492.4 44.4 487.1L281.3 405.1C292.4 401.2 295.7 386.1 287.3 378.6L133.3 224.7C125 216.3 110.8 219.6 106.9 230.7L24.02 467.6z"/></svg>

<svg xmlns="http://www.w3.org/2000/svg" viewBox="0 0 512 512"><!--! Font Awesome Pro 6.4.2 by @fontawesome - https://fontawesome.com License - https://fontawesome.com/license (Commercial License) Copyright 2023 Fonticons, Inc. --><path d="M310.2 126.9c-8.3 8.3-8.3 21.8 0 30.2l44.7 44.7c8.3 8.3 21.8 8.3 30.2 0l95.4-95.4c20.7-20.7 20.7-54.2 0-74.8s-54.2-20.7-74.8 0l-95.4 95.4zm-11.3 41.5c-14.6-14.6-14.6-38.2 0-52.8l95.4-95.4c26.9-26.9 70.5-26.9 97.5 0s26.9 70.5 0 97.5l-95.4 95.4c-14.6 14.6-38.2 14.6-52.8 0l-16.7-16.7L227.3 296l71.3 71.3c16.7 16.7 10.2 45-12.1 52.8L49.7 503.1C24.4 511.9 .1 487.6 8.9 462.3L91.8 225.4c7.8-22.3 36.2-28.7 52.8-12.1L216 284.7l99.6-99.6-16.7-16.7zm-192 62.3L24 467.6c-4.4 12.7 7.7 24.8 20.4 20.4l236.9-82.9c11.1-3.9 14.4-18.1 6-26.4l-154-154c-8.3-8.3-22.5-5.1-26.4 6z"/></svg>
